images/payment/payment-5.svg

<svg width="314" height="87" viewBox="0 0 314 87" fill="none" xmlns="http://www.w3.org/2000/svg">
<rect width="313.481" height="86.2911" rx="34.9367" fill="url(#paint0_linear_1181_25405)"/>
<path d="M44.9052 56.6455L35.4397 43.7888L38.4582 41.9255L49.1535 56.6455H44.9052ZM27.353 56.6455V30.5594H31.005V56.6455H27.353ZM29.8871 45.1676V41.8882H38.3464V45.1676H29.8871ZM38.7936 44.0124L35.3651 43.4907L44.7189 30.5594H48.7063L38.7936 44.0124ZM53.2012 64.0987C52.2571 64.0987 51.3379 63.9372 50.4435 63.6142C49.5492 63.3161 48.779 62.8689 48.1331 62.2726L49.661 59.5895C50.1578 60.0615 50.7044 60.4218 51.3006 60.6702C51.8969 60.9187 52.5304 61.0429 53.2012 61.0429C54.0707 61.0429 54.7912 60.8193 55.3626 60.3721C55.934 59.9249 56.4682 59.1299 56.9651 57.9871L58.1948 55.2667L58.5675 54.8195L66.3188 36.8946H69.8218L60.2444 58.6206C59.673 60.0119 59.0271 61.105 58.3066 61.9C57.611 62.695 56.8408 63.254 55.9961 63.577C55.1515 63.9248 54.2198 64.0987 53.2012 64.0987ZM57.8967 57.279L48.8784 36.8946H52.605L60.2817 54.4841L57.8967 57.279ZM69.2261 56.6455L77.7227 45.6148L77.6854 47.4408L69.5988 36.8946H73.5862L79.7723 45.0186H78.2444L84.4306 36.8946H88.3435L80.145 47.5154L80.1822 45.6148L88.7534 56.6455H84.6914L78.1699 47.9998L79.6233 48.2234L73.2135 56.6455H69.2261ZM92.5178 56.6455V36.8946H96.0953V45.2794H107.35V36.8946H110.927V56.6455H107.35V48.3725H96.0953V56.6455H92.5178ZM130.516 56.6455V49.7141L131.075 50.3848H124.778C122.144 50.3848 120.082 49.8259 118.591 48.7079C117.126 47.5899 116.393 45.9626 116.393 43.8261C116.393 41.5404 117.175 39.8138 118.74 38.6461C120.33 37.4785 122.442 36.8946 125.076 36.8946H133.721V56.6455H130.516ZM116.206 56.6455L121.573 49.0805H125.262L120.045 56.6455H116.206ZM130.516 48.5961V39.0188L131.075 40.025H125.187C123.548 40.025 122.281 40.3355 121.386 40.9566C120.492 41.5528 120.045 42.5466 120.045 43.9379C120.045 46.5216 121.709 47.8135 125.038 47.8135H131.075L130.516 48.5961Z" fill="black"/>
<path fill-rule="evenodd" clip-rule="evenodd" d="M185.108 41.9115C185.435 42.2391 185.619 42.683 185.619 43.146C185.619 43.6089 185.435 44.0528 185.108 44.3804L171.134 58.3551C170.974 58.5267 170.781 58.6643 170.567 58.7598C170.352 58.8553 170.121 58.9066 169.886 58.9108C169.652 58.9149 169.419 58.8718 169.201 58.7839C168.984 58.6961 168.786 58.5653 168.62 58.3994C168.455 58.2335 168.324 58.0359 168.236 57.8184C168.148 57.6009 168.105 57.3679 168.109 57.1334C168.113 56.8988 168.164 56.6675 168.26 56.4533C168.355 56.239 168.493 56.0461 168.665 55.8862L179.658 44.8928L146.608 44.8928C146.145 44.8928 145.7 44.7087 145.373 44.3811C145.045 44.0536 144.861 43.6092 144.861 43.146C144.861 42.6827 145.045 42.2383 145.373 41.9108C145.7 41.5832 146.145 41.3991 146.608 41.3991L179.658 41.3991L168.665 30.4057C168.493 30.2458 168.355 30.0529 168.26 29.8386C168.164 29.6244 168.113 29.3931 168.109 29.1585C168.105 28.924 168.148 28.691 168.236 28.4735C168.324 28.256 168.455 28.0584 168.62 27.8925C168.786 27.7266 168.984 27.5959 169.201 27.508C169.419 27.4201 169.652 27.377 169.886 27.3811C170.121 27.3853 170.352 27.4366 170.567 27.5321C170.781 27.6276 170.974 27.7652 171.134 27.9368L185.108 41.9115Z" fill="#FF5100"/>
<path d="M209.996 54.894C206.816 54.894 204.096 54.4592 201.835 53.5897C199.574 52.6953 197.848 51.4034 196.655 49.7141C195.463 48.0247 194.866 45.9751 194.866 43.5652C194.866 41.1553 195.463 39.1057 196.655 37.4163C197.848 35.727 199.574 34.4351 201.835 33.5407C204.096 32.6463 206.816 32.1991 209.996 32.1991C210.046 32.1991 210.133 32.1991 210.257 32.1991C210.406 32.1991 210.543 32.1991 210.667 32.1991C210.816 32.1991 210.903 32.1991 210.928 32.1991C214.108 32.1991 216.816 32.6463 219.052 33.5407C221.313 34.4351 223.039 35.727 224.232 37.4163C225.424 39.1057 226.021 41.1553 226.021 43.5652C226.021 45.9502 225.424 47.9998 224.232 49.7141C223.064 51.4034 221.362 52.6953 219.126 53.5897C216.915 54.4592 214.232 54.894 211.077 54.894C211.027 54.894 210.916 54.894 210.742 54.894C210.593 54.894 210.444 54.894 210.294 54.894C210.145 54.894 210.046 54.894 209.996 54.894ZM210.406 51.9873C210.456 51.9873 210.518 51.9873 210.593 51.9873C210.667 51.9873 210.704 51.9873 210.704 51.9873C213.238 51.9624 215.375 51.6395 217.114 51.0184C218.853 50.3724 220.17 49.4284 221.064 48.1862C221.984 46.9191 222.443 45.3664 222.443 43.5279C222.443 41.7143 221.984 40.1864 221.064 38.9442C220.145 37.702 218.816 36.758 217.077 36.112C215.363 35.4661 213.263 35.1431 210.779 35.1431C210.754 35.1431 210.692 35.1431 210.593 35.1431C210.518 35.1431 210.456 35.1431 210.406 35.1431C207.847 35.1431 205.674 35.4661 203.885 36.112C202.121 36.7331 200.779 37.6648 199.86 38.907C198.941 40.1492 198.481 41.7019 198.481 43.5652C198.481 45.4285 198.953 46.9812 199.897 48.2234C200.841 49.4656 202.195 50.4097 203.959 51.0556C205.748 51.6767 207.897 51.9873 210.406 51.9873ZM208.729 57.6144V29.5905H212.195V57.6144H208.729ZM243.49 56.9436C241.503 56.9436 239.652 56.6082 237.938 55.9375C236.248 55.2667 234.782 54.335 233.54 53.1425C232.298 51.9252 231.329 50.5091 230.633 48.8942C229.938 47.2794 229.59 45.5154 229.59 43.6025C229.59 41.6895 229.938 39.9256 230.633 38.3107C231.329 36.6959 232.298 35.2922 233.54 34.0997C234.782 32.8823 236.248 31.9383 237.938 31.2675C239.627 30.5967 241.478 30.2613 243.49 30.2613C245.478 30.2613 247.304 30.5967 248.968 31.2675C250.658 31.9134 252.123 32.8451 253.366 34.0624C254.633 35.2549 255.602 36.6586 256.272 38.2735C256.968 39.8883 257.316 41.6646 257.316 43.6025C257.316 45.5403 256.968 47.3166 256.272 48.9315C255.602 50.5463 254.633 51.9624 253.366 53.1798C252.123 54.3723 250.658 55.3039 248.968 55.9747C247.304 56.6207 245.478 56.9436 243.49 56.9436ZM243.49 53.627C244.931 53.627 246.26 53.3785 247.478 52.8817C248.72 52.3848 249.788 51.6892 250.682 50.7948C251.602 49.8755 252.31 48.8073 252.807 47.5899C253.328 46.3726 253.589 45.0434 253.589 43.6025C253.589 42.1615 253.328 40.8324 252.807 39.615C252.31 38.3977 251.602 37.3418 250.682 36.4474C249.788 35.5282 248.72 34.8202 247.478 34.3233C246.26 33.8264 244.931 33.578 243.49 33.578C242.024 33.578 240.67 33.8264 239.428 34.3233C238.211 34.8202 237.143 35.5282 236.223 36.4474C235.304 37.3418 234.584 38.3977 234.062 39.615C233.565 40.8324 233.317 42.1615 233.317 43.6025C233.317 45.0434 233.565 46.3726 234.062 47.5899C234.584 48.8073 235.304 49.8755 236.223 50.7948C237.143 51.6892 238.211 52.3848 239.428 52.8817C240.67 53.3785 242.024 53.627 243.49 53.627ZM263.34 56.6455V30.5594H285.811V56.6455H282.159V32.8326L283.054 33.8016H266.098L267.029 32.8326V56.6455H263.34Z" fill="black"/>
<defs>
<linearGradient id="paint0_linear_1181_25405" x1="156.741" y1="0" x2="156.741" y2="86.2911" gradientUnits="userSpaceOnUse">
<stop stop-color="white"/>
<stop offset="1" stop-color="#FFF5EF"/>
</linearGradient>
</defs>
</svg>

<svg width="314" height="87" fill="none" xmlns="http://www.w3.org/2000/svg"><rect width="313.481" height="86.291" rx="34.937" fill="url(#paint0_linear_1181_25405)"/><path d="M44.905 56.645L35.44 43.79l3.018-1.864 10.696 14.72h-4.249zm-17.552 0V30.56h3.652v26.086h-3.652zm2.534-11.477v-3.28h8.46v3.28h-8.46zm8.907-1.156l-3.429-.521 9.354-12.932h3.987l-9.912 13.453zM53.2 64.1a8.06 8.06 0 01-2.758-.485 6.288 6.288 0 01-2.31-1.341l1.528-2.684a5.369 5.369 0 001.64 1.081 4.89 4.89 0 001.9.373c.87 0 1.59-.224 2.162-.67.571-.448 1.105-1.243 1.602-2.386l1.23-2.72.373-.448 7.75-17.924h3.504L60.244 58.62c-.571 1.39-1.217 2.484-1.937 3.279-.696.795-1.466 1.354-2.31 1.677-.846.348-1.777.522-2.796.522zm4.696-6.82l-9.019-20.384h3.727l7.677 17.59-2.385 2.794zm11.33-.634l8.496-11.03-.038 1.826L69.6 36.895h3.987l6.186 8.124h-1.528l6.187-8.124h3.913l-8.199 10.62.037-1.9 8.571 11.03h-4.062L78.17 48l1.453.223-6.41 8.422h-3.987zm23.29 0v-19.75h3.578v8.384h11.255v-8.384h3.577v19.75h-3.577v-8.273H96.095v8.273h-3.577zm37.999 0v-6.93l.559.67h-6.297c-2.634 0-4.696-.56-6.187-1.677-1.465-1.118-2.198-2.745-2.198-4.882 0-2.286.782-4.012 2.347-5.18 1.59-1.168 3.702-1.751 6.336-1.751h8.645v19.75h-3.205zm-14.31 0l5.367-7.565h3.689l-5.217 7.566h-3.839zm14.31-8.049V39.02l.559 1.006h-5.888c-1.639 0-2.906.31-3.801.932-.894.596-1.341 1.59-1.341 2.98 0 2.585 1.664 3.877 4.993 3.877h6.037l-.559.782z" fill="#000"/><path fill-rule="evenodd" clip-rule="evenodd" d="M185.108 41.911a1.748 1.748 0 010 2.47l-13.974 13.974a1.751 1.751 0 01-1.933.429 1.752 1.752 0 01-.965-.966 1.747 1.747 0 01.429-1.932l10.993-10.993h-33.05a1.746 1.746 0 110-3.494h33.05l-10.993-10.993a1.735 1.735 0 01-.556-1.247 1.747 1.747 0 013.025-1.222l13.974 13.974z" fill="#FF5100"/><path d="M209.996 54.894c-3.18 0-5.9-.435-8.161-1.304-2.261-.895-3.987-2.187-5.18-3.876-1.192-1.69-1.789-3.739-1.789-6.149s.597-4.46 1.789-6.149c1.193-1.689 2.919-2.98 5.18-3.875 2.261-.895 4.981-1.342 8.161-1.342h.932c3.18 0 5.888.447 8.124 1.342 2.261.894 3.987 2.186 5.18 3.875 1.192 1.69 1.789 3.74 1.789 6.15 0 2.384-.597 4.434-1.789 6.148-1.168 1.69-2.87 2.981-5.106 3.876-2.211.87-4.894 1.304-8.049 1.304h-1.081zm.41-2.907h.298c2.534-.025 4.671-.348 6.41-.969 1.739-.646 3.056-1.59 3.95-2.832.92-1.267 1.379-2.82 1.379-4.658 0-1.814-.459-3.342-1.379-4.584-.919-1.242-2.248-2.186-3.987-2.832-1.714-.646-3.814-.969-6.298-.969h-.373c-2.559 0-4.732.323-6.521.969-1.764.621-3.106 1.553-4.025 2.795-.919 1.242-1.379 2.795-1.379 4.658 0 1.864.472 3.416 1.416 4.658.944 1.243 2.298 2.187 4.062 2.833 1.789.62 3.938.931 6.447.931zm-1.677 5.627V29.591h3.466v28.023h-3.466zm34.761-.67c-1.987 0-3.838-.336-5.552-1.007-1.69-.67-3.156-1.602-4.398-2.794a13.21 13.21 0 01-2.907-4.249c-.695-1.615-1.043-3.379-1.043-5.291 0-1.913.348-3.677 1.043-5.292a12.792 12.792 0 012.907-4.211c1.242-1.218 2.708-2.162 4.398-2.833 1.689-.67 3.54-1.006 5.552-1.006 1.988 0 3.814.336 5.478 1.006a12.676 12.676 0 014.398 2.795 12.07 12.07 0 012.906 4.212c.696 1.614 1.044 3.39 1.044 5.328 0 1.938-.348 3.715-1.044 5.33a12.449 12.449 0 01-2.906 4.248c-1.243 1.192-2.708 2.124-4.398 2.795-1.664.646-3.49.969-5.478.969zm0-3.317c1.441 0 2.77-.248 3.988-.745a9.422 9.422 0 003.204-2.087 9.626 9.626 0 002.125-3.205c.521-1.217.782-2.547.782-3.988 0-1.44-.261-2.77-.782-3.987a9.23 9.23 0 00-2.125-3.168 9.151 9.151 0 00-3.204-2.124c-1.218-.497-2.547-.745-3.988-.745-1.466 0-2.82.248-4.062.745a9.645 9.645 0 00-3.205 2.124 9.707 9.707 0 00-2.161 3.168c-.497 1.217-.745 2.546-.745 3.987 0 1.441.248 2.77.745 3.988a10.138 10.138 0 002.161 3.205 9.94 9.94 0 003.205 2.087c1.242.497 2.596.745 4.062.745zm19.85 3.018V30.56h22.471v26.086h-3.652V32.834l.895.969h-16.956l.931-.97v23.813h-3.689z" fill="#000"/><defs><linearGradient id="paint0_linear_1181_25405" x1="156.741" y1="0" x2="156.741" y2="86.291" gradientUnits="userSpaceOnUse"><stop stop-color="#fff"/><stop offset="1" stop-color="#FFF5EF"/></linearGradient></defs></svg>
